X:1
T:Title
%%score { ( 1 4 ) | ( 2 3 ) }
L:1/8
Q:1/4=100
M:4/4
K:D
V:1 treble nm="Grand Piano"
V:4 treble 
V:2 bass 
V:3 bass 
V:1
 [Fd]2 .[Gc]2 [A,DA]2 [DB]2 | [CE]2 [CEG]2 [A,DF]4 | [CE]2 [A,EA]2 [A,DF][E^G] [A,EA]2 | %3
w: Freylinghausen * * *|||
 [DB]2 [Ed]2 [Ec]2 A2 | [Fd]2 c2 B2 [DB]2 | [E,CE]2 [A,CG]2 [A,DF][E^G] [A,EA]2 | %6
w: |||
 [DB]2 [Ed]2 [Ec]4 | [EB]2 [Ed]2 [Ec]4 | z2 .A2 z4 | [B,GB]2 [EGc]2 ^A2 F2 | z4 .A2 z2 | %11
w: |||||
 z2 [^Ge]2 z4 | [Dd]2 A2 Bc d2 |[M:8/4] F2 [CE]2 [A,D]4 z8 |[M:4/4] [B,D]4 [A,D]4 |] %15
w: ||||
V:2
 [D,A,]2 z[K:treble] B[K:bass] F,2 G,2 | A,2 A,,2 D,4 | A,2 C,2 z B, C,2 | %3
 [B,,F,]2 [E,^G,]2 [A,,A,]2 [A,C]2 | [D,A,]2 [F,A,D]2 [G,D]2 [G,,G,]2 | A,,2 A,,2 z B, C,2 | %6
 [B,,F,]2 [E,^G,]2 [A,,A,]4 | [E,^G,]2 [E,G,]2 [A,,A,]4 | [D,F,]2 [C,A,]2 [D,A,D]2 [B,,B,]2 | %9
 E,2 C,2 [F,CF]2 [F,^A,C]2 | [D,F,D]2 [F,A,D]2 [C,A,]2 [D,A,D]2 | %11
 [F,A,]2 .[E,B,]2 [A,EA]2 [A,,A,]2 | [B,,F,]2 [D,F,D]2 [G,D]2 [F,A,D]2 | %13
[M:8/4] [A,D]2 [A,,G,]2 [D,F,]4 z8 |[M:4/4] [G,,G,]4 [D,F,]4 |] %15
V:3
 z2 [E,G,]2[K:treble][K:bass] z4 | x8 | z4 D,2 z2 | x8 | x8 | z4 D,2 z2 | x8 | x8 | x8 | x8 | x8 | %11
 x8 | x8 |[M:8/4] x16 |[M:4/4] x8 |] %15
V:4
 x8 | x8 | x8 | x8 | x8 | x8 | x8 | x8 | [DA]2 E-[EG] F2 [Fd]2 | x8 | A2 A2 E-[EG] F2 | %11
 [Ad]2 z E c2 [CA]2 | x8 |[M:8/4] x16 |[M:4/4] x8 |] %15

